!!!OTL: 718. Mit dir wird nichts daraus!
!!!ODT: 1852
!!!ARE: Europa, Mitteleuropa, Deutschland, Hildburghausen
!!!SCT: E0718
!!!TXL: @@DE
!!!YEM: Copyright 1995, estate of Helmut Schaffrath.
**kern	**text
*ICvox	*
*M4/4	*
*met(c)	*
*k[f#]	*
*G:	*
!LO:TX:a:t=Hildburghauſen. 1852.	!
{4d	Das
=1	=1
4d	Lie-
4g	-ben
4g	ſteht
4b	eim
=2	=2
(8bL	Je-
8aJ)	.
4g	-den
4a}	frei,
{4b	mag
=3	=3
(8ddqq	.
4cc)	lie-
4a	-ben
4b	wer
4a	da
=4	=4
2g	will!
4r}	.
{4g	Ein
=5	=5
4b	we-
4dd	-nig
4dd	lieb
8eeL	hab
8ddJ	.
=6	=6
4cc	ich
4cc	dich
4cc}	wohl,
{8ddL	daß
8ccJ	.
=7	=7
4b	ich
4b	dich
4b	a-
4g	-ber
=8	=8
4a	neh-
4a	-men
4a}	ſoll,
{4b	das
=9	=9
8ddL	bild
8ccJ	.
4a	dir
4b	ja
4a	nicht
=10	=10
2g	ein.
4r}	.
==	==
!!!AGN: Liebes - Lied, Leid, Klage
!!!ONB: ESAC (Essen Associative Code) Database: ERK2
!!!AMT: simple quadruple
!!!AIN: vox
!!!EED: Helmut Schaffrath
!!!EEV: 1.0
!!!GTL: Liebeslieder [Neuere (aus dem 18. bis 19. Jahrh.) - Liebesleid] 678-740
!!!URL-scan: https://rosdok.uni-rostock.de/mcrviewer/recordIdentifier/rosdok_ppn745177662/iview2/phys_0524.iview2?x=173.98334137255915&y=1919.3581174334977&scale=0.7029437510502773&rotation=0&layout=singlePageLayout
!!!ENC: Anna Maria Matuszewska
!!!EEV: 2024/12/16
*-	*-
